images/instagram.svg

<svg fill="none" height="28" viewBox="0 0 28 28" width="28" xmlns="http://www.w3.org/2000/svg"><g fill="#fff"><path d="m14.0001 2.7054c3.6789 0 4.1142.01422 5.5672.08039 1.3432.06125 2.0727.28547 2.5583.47414.5991.2206 1.1411.57288 1.5859 1.03086.458.44484.8103.98681 1.0309 1.58594.1887.48562.4129 1.21516.4742 2.55828.0661 1.45305.0803 1.88839.0803 5.56719s-.0142 4.1141-.0803 5.5672c-.0613 1.3431-.2855 2.0726-.4742 2.5583-.2294.594-.5806 1.1334-1.0308 1.5837-.4503.4503-.9898.8014-1.5838 1.0309-.4856.1886-1.2152.4129-2.5583.4741-1.4525.0662-1.8883.0804-5.5672.0804-3.6788 0-4.11466-.0142-5.56716-.0804-1.34312-.0612-2.07265-.2855-2.55828-.4741-.59913-.2206-1.1411-.5729-1.58594-1.0309-.45797-.4448-.81025-.9868-1.03086-1.5859-.18867-.4856-.41289-1.2152-.47414-2.5583-.06617-1.453-.08039-1.8884-.08039-5.5672s.01422-4.11413.08039-5.56718c.06125-1.34312.28547-2.07265.47414-2.55828.22061-.59913.57289-1.1411 1.03086-1.58594.44484-.45797.98681-.81025 1.58594-1.03086.48563-.18867 1.21516-.41289 2.55828-.47414 1.45305-.06617 1.88836-.08039 5.56716-.08039zm.0022-2.484453c-3.7417 0-4.21091.01586-5.68036.083125-1.46945.067266-2.47024.301875-3.34524.642032-.91951.346146-1.75258.888456-2.44125 1.589216-.70076.68867-1.24307 1.52174-1.589215 2.44125-.340156.875-.573125 1.87797-.639843 3.34414-.066719 1.46618-.083125 1.93759-.083125 5.67929s.015859 4.2109.083125 5.6804c.067265 1.4695.299687 2.468.639843 3.343.346285.9192.888595 1.7519 1.589215 2.4402.68844.7012 1.52156 1.2437 2.44125 1.5898.875.3407 1.87797.5736 3.34414.6404 1.46618.0667 1.93866.0831 5.68036.0831 3.7418 0 4.211-.0159 5.6804-.0831 1.4695-.0673 2.467-.2997 3.342-.6404.9155-.3538 1.7469-.895 2.4409-1.589s1.2353-1.5254 1.589-2.441c.3407-.875.5737-1.8779.6404-3.3441s.0831-1.9387.0831-5.6804-.0158-4.21092-.0831-5.68037c-.0673-1.46946-.2997-2.46696-.6404-3.34196-.3459-.9192-.888-1.75193-1.5887-2.44015-.6885-.70116-1.5216-1.24385-2.4412-1.590316-.875-.340157-1.878-.573125-3.3442-.639844-1.4661-.066719-1.9375-.083125-5.6793-.083125z"/><path d="m13.9999 6.92554c-1.3992 0-2.7669.4149-3.9303 1.19224-1.16337.77735-2.07011 1.88221-2.60555 3.17492-.53545 1.2926-.67554 2.7151-.40258 4.0874.27297 1.3722.94674 2.6328 1.93611 3.6222.98937.9893 2.24992 1.6631 3.62222 1.9361 1.3723.2729 2.7947.1328 4.0874-.4026 1.2926-.5355 2.3975-1.4422 3.1748-2.6056.7774-1.1634 1.1923-2.5311 1.1923-3.9303.0001-.929-.1829-1.849-.5384-2.7073-.3555-.8584-.8766-1.63826-1.5335-2.29519s-1.4368-1.17802-2.2952-1.53351c-.8583-.3555-1.7782-.53843-2.7073-.53836zm0 11.66816c-.9085 0-1.7967-.2695-2.5521-.7742-.7555-.5048-1.3443-1.2222-1.69196-2.0616-.34769-.8394-.43866-1.7631-.26141-2.6542s.61477-1.7096 1.25717-2.3521c.6425-.6424 1.461-1.07992 2.3521-1.25717s1.8148-.08628 2.6542.26141c.8394.34766 1.5568.93646 2.0616 1.69196.5047.7554.7742 1.6436.7742 2.5521 0 1.2184-.484 2.3868-1.3455 3.2483s-2.0299 1.3455-3.2483 1.3455z"/><path d="m21.3544 8.29884c.913 0 1.6532-.74016 1.6532-1.6532s-.7402-1.65321-1.6532-1.65321c-.9131 0-1.6532.74017-1.6532 1.65321s.7401 1.6532 1.6532 1.6532z"/></g></svg>

<svg width="28" height="28" viewBox="0 0 28 28" fill="none" xmlns="http://www.w3.org/2000/svg">
<path d="M14.0001 2.7054C17.679 2.7054 18.1143 2.71962 19.5673 2.78579C20.9105 2.84704 21.64 3.07126 22.1256 3.25993C22.7247 3.48053 23.2667 3.83281 23.7115 4.29079C24.1695 4.73563 24.5218 5.2776 24.7424 5.87673C24.9311 6.36235 25.1553 7.09189 25.2166 8.43501C25.2827 9.88806 25.2969 10.3234 25.2969 14.0022C25.2969 17.681 25.2827 18.1163 25.2166 19.5694C25.1553 20.9125 24.9311 21.642 24.7424 22.1277C24.513 22.7217 24.1618 23.2611 23.7116 23.7114C23.2613 24.1617 22.7218 24.5128 22.1278 24.7423C21.6422 24.9309 20.9126 25.1552 19.5695 25.2164C18.117 25.2826 17.6812 25.2968 14.0023 25.2968C10.3235 25.2968 9.88764 25.2826 8.43514 25.2164C7.09202 25.1552 6.36249 24.9309 5.87686 24.7423C5.27773 24.5217 4.73576 24.1694 4.29092 23.7114C3.83295 23.2666 3.48067 22.7246 3.26006 22.1255C3.07139 21.6399 2.84717 20.9103 2.78592 19.5672C2.71975 18.1142 2.70553 17.6788 2.70553 14C2.70553 10.3212 2.71975 9.88587 2.78592 8.43282C2.84717 7.0897 3.07139 6.36017 3.26006 5.87454C3.48067 5.27541 3.83295 4.73344 4.29092 4.2886C4.73576 3.83063 5.27773 3.47835 5.87686 3.25774C6.36249 3.06907 7.09202 2.84485 8.43514 2.7836C9.88819 2.71743 10.3235 2.70321 14.0023 2.70321L14.0001 2.7054ZM14.0023 0.220947C10.2606 0.220947 9.79139 0.236807 8.32194 0.304072C6.85249 0.371338 5.8517 0.605947 4.9767 0.946104C4.05719 1.29225 3.22412 1.83456 2.53545 2.53532C1.83469 3.22399 1.29238 4.05706 0.946235 4.97657C0.606079 5.85157 0.37311 6.85454 0.306392 8.32071C0.239673 9.78689 0.223267 10.2583 0.223267 14C0.223267 17.7417 0.239126 18.2109 0.306392 19.6804C0.373657 21.1499 0.606079 22.1484 0.946235 23.0234C1.29252 23.9426 1.83483 24.7753 2.53545 25.4636C3.22389 26.1648 4.05701 26.7073 4.9767 27.0534C5.8517 27.3941 6.85467 27.627 8.32084 27.6938C9.78702 27.7605 10.2595 27.7769 14.0012 27.7769C17.743 27.7769 18.2122 27.761 19.6816 27.6938C21.1511 27.6265 22.1486 27.3941 23.0236 27.0534C23.9391 26.6996 24.7705 26.1584 25.4645 25.4644C26.1585 24.7704 26.6998 23.939 27.0535 23.0234C27.3942 22.1484 27.6272 21.1455 27.6939 19.6793C27.7606 18.2131 27.777 17.7406 27.777 13.9989C27.777 10.2572 27.7612 9.78798 27.6939 8.31853C27.6266 6.84907 27.3942 5.85157 27.0535 4.97657C26.7076 4.05737 26.1655 3.22464 25.4648 2.53642C24.7763 1.83526 23.9432 1.29257 23.0236 0.946104C22.1486 0.605947 21.1456 0.372979 19.6794 0.30626C18.2133 0.239541 17.7419 0.223135 14.0001 0.223135L14.0023 0.220947Z" fill="white"/>
<path d="M13.9999 6.92554C12.6007 6.92554 11.233 7.34044 10.0696 8.11778C8.90623 8.89513 7.99949 9.99999 7.46405 11.2927C6.9286 12.5853 6.78851 14.0078 7.06147 15.3801C7.33444 16.7523 8.00821 18.0129 8.99758 19.0023C9.98695 19.9916 11.2475 20.6654 12.6198 20.9384C13.9921 21.2113 15.4145 21.0712 16.7072 20.5358C17.9998 20.0003 19.1047 19.0936 19.882 17.9302C20.6594 16.7668 21.0743 15.3991 21.0743 13.9999C21.0744 13.0709 20.8914 12.1509 20.5359 11.2926C20.1804 10.4342 19.6593 9.65434 19.0024 8.99741C18.3455 8.34048 17.5656 7.81939 16.7072 7.4639C15.8489 7.1084 14.929 6.92547 13.9999 6.92554ZM13.9999 18.5937C13.0914 18.5937 12.2032 18.3242 11.4478 17.8195C10.6923 17.3147 10.1035 16.5973 9.75584 15.7579C9.40815 14.9185 9.31718 13.9948 9.49443 13.1037C9.67168 12.2126 10.1092 11.3941 10.7516 10.7516C11.3941 10.1092 12.2126 9.67168 13.1037 9.49443C13.9948 9.31718 14.9185 9.40815 15.7579 9.75584C16.5973 10.1035 17.3147 10.6923 17.8195 11.4478C18.3242 12.2032 18.5937 13.0914 18.5937 13.9999C18.5937 15.2183 18.1097 16.3867 17.2482 17.2482C16.3867 18.1097 15.2183 18.5937 13.9999 18.5937Z" fill="white"/>
<path d="M21.3544 8.29884C22.2674 8.29884 23.0076 7.55868 23.0076 6.64564C23.0076 5.7326 22.2674 4.99243 21.3544 4.99243C20.4413 4.99243 19.7012 5.7326 19.7012 6.64564C19.7012 7.55868 20.4413 8.29884 21.3544 8.29884Z" fill="white"/>
</svg>
